Newaita/actions/24/kdenlive-custom-effect.svg

<svg height="24" viewBox="0 0 24 24" width="24" xmlns="http://www.w3.org/2000/svg"><g fill="#424242"><path d="m11.878906 2.171875c-.351562.011719-.667968.207031-.835937.511719l-2.695313 4.914062-5.503906 1.042969c-.355469.066406-.644531.320313-.753906.664063-.113282.34375-.027344.722656.21875.984374l3.839844 4.078126-.707032 5.558593c-.046875.355469.105469.710938.398438.921875.289062.214844.675781.25 1 .09375l4.570312-2.15625v-2.183594l-3.78125 1.785157.539063-4.230469c.039062-.292969-.058594-.589844-.261719-.804688l-2.925781-3.105468 4.195312-.792969c.289063-.054687.539063-.238281.679688-.496094l2.050781-3.742187 2.050781 3.742187c.140625.257813.394531.441407.683594.496094l4.191406.792969-1.273437 1.351562h2.714844l1.234374-1.308594c.246094-.261718.332032-.640624.21875-.984374-.109374-.34375-.402343-.597657-.753906-.664063l-5.507812-1.042969-2.691406-4.914062c-.179688-.324219-.523438-.523438-.894532-.511719zm0 0"/><path d="m20.839844 13.851562c-.390625-.390624-1.015625-.390624-1.40625 0l-3.761719 3.761719c-.039063.023438-.074219.050781-.109375.082031l2.132812 2.132813c.03125-.035156.058594-.070313.082032-.109375l3.761718-3.761719c.390626-.390625.390626-1.015625 0-1.40625zm-5.980469 4.546876-.347656.351562c-.046875.046875-.085938.101562-.109375.160156l-1.054688 2.457032c-.183594.425781.25.859374.675782.675781l2.457031-1.054688c.058593-.023437.113281-.0625.160156-.109375l.351563-.347656zm0 0"/></g></svg>

<svg xmlns="http://www.w3.org/2000/svg" xmlns:xlink="http://www.w3.org/1999/xlink" width="24px" height="24px" viewBox="0 0 24 24" version="1.1">
<g id="surface1">
     <defs>
  <style id="current-color-scheme" type="text/css">
   .ColorScheme-Text { color:#424242; } .ColorScheme-Highlight { color:#eeeeee; }
  </style>
 </defs>
<path style="fill:currentColor" class="ColorScheme-Text" d="M 11.878906 2.171875 C 11.527344 2.183594 11.210938 2.378906 11.042969 2.683594 L 8.347656 7.597656 L 2.84375 8.640625 C 2.488281 8.707031 2.199219 8.960938 2.089844 9.304688 C 1.976562 9.648438 2.0625 10.027344 2.308594 10.289062 L 6.148438 14.367188 L 5.441406 19.925781 C 5.394531 20.28125 5.546875 20.636719 5.839844 20.847656 C 6.128906 21.0625 6.515625 21.097656 6.839844 20.941406 L 11.410156 18.785156 L 11.410156 16.601562 L 7.628906 18.386719 L 8.167969 14.15625 C 8.207031 13.863281 8.109375 13.566406 7.90625 13.351562 L 4.980469 10.246094 L 9.175781 9.453125 C 9.464844 9.398438 9.714844 9.214844 9.855469 8.957031 L 11.90625 5.214844 L 13.957031 8.957031 C 14.097656 9.214844 14.351562 9.398438 14.640625 9.453125 L 18.832031 10.246094 L 17.558594 11.597656 L 20.273438 11.597656 L 21.507812 10.289062 C 21.753906 10.027344 21.839844 9.648438 21.726562 9.304688 C 21.617188 8.960938 21.324219 8.707031 20.972656 8.640625 L 15.464844 7.597656 L 12.773438 2.683594 C 12.59375 2.359375 12.25 2.160156 11.878906 2.171875 Z M 11.878906 2.171875 "/>
     <defs>
  <style id="current-color-scheme" type="text/css">
   .ColorScheme-Text { color:#424242; } .ColorScheme-Highlight { color:#eeeeee; }
  </style>
 </defs>
<path style="fill:currentColor" class="ColorScheme-Text" d="M 20.839844 13.851562 C 20.449219 13.460938 19.824219 13.460938 19.433594 13.851562 L 15.671875 17.613281 C 15.632812 17.636719 15.597656 17.664062 15.5625 17.695312 L 17.695312 19.828125 C 17.726562 19.792969 17.753906 19.757812 17.777344 19.71875 L 21.539062 15.957031 C 21.929688 15.566406 21.929688 14.941406 21.539062 14.550781 Z M 14.859375 18.398438 L 14.511719 18.75 C 14.464844 18.796875 14.425781 18.851562 14.402344 18.910156 L 13.347656 21.367188 C 13.164062 21.792969 13.597656 22.226562 14.023438 22.042969 L 16.480469 20.988281 C 16.539062 20.964844 16.59375 20.925781 16.640625 20.878906 L 16.992188 20.53125 Z M 14.859375 18.398438 "/>
</g>
</svg>
